assets/icons/network/cellular/signal-good-secure.svg

<?xml version="1.0" encoding="UTF-8" standalone="no"?>
<svg viewBox="0 0 24 24" height="24" width="24" version="1.1" id="svg4" sodipodi:docname="signal-good-secure.svg" inkscape:version="1.1.1 (eb90963e84, 2021-10-02)"
   xmlns:inkscape="http://www.inkscape.org/namespaces/inkscape"
   xmlns:sodipodi="http://sodipodi.sourceforge.net/DTD/sodipodi-0.dtd"
   xmlns="http://www.w3.org/2000/svg"
   xmlns:svg="http://www.w3.org/2000/svg">
   <defs id="defs8" />
   <sodipodi:namedview id="namedview6" pagecolor="#ffffff" bordercolor="#666666" borderopacity="1.0" inkscape:pageshadow="2" inkscape:pageopacity="0.0" inkscape:pagecheckerboard="0" showgrid="true" inkscape:zoom="14" inkscape:cx="-3.6785714" inkscape:cy="13.714286" inkscape:window-width="1920" inkscape:window-height="1043" inkscape:window-x="1920" inkscape:window-y="0" inkscape:window-maximized="1" inkscape:current-layer="svg4">
      <inkscape:grid type="xygrid" id="grid905" />
      <inkscape:grid type="xygrid" id="grid907" dotted="true" spacingx="0.5" spacingy="0.5" empspacing="10" />
   </sodipodi:namedview>
   <path id="path862" style="color:#000000;fill:#808080;-inkscape-stroke:none" d="M 21 2.2929688 L 20.146484 3.1464844 L 2.2929688 21 L 14 21 L 14 17 A 1.0001 1.0001 0 0 1 15 16 L 15 15 C 15 14.299808 15.301927 13.576981 15.876953 13.001953 C 16.389104 12.489803 17.125288 12.129779 18 12.029297 L 18 6.7070312 L 20 4.7070312 L 20 12.275391 C 20.382432 12.426863 20.72004 12.634737 21 12.884766 L 21 2.2929688 z " />
   <path id="rect872" style="fill:#808080;fill-opacity:1;fill-rule:evenodd;stroke:none;stroke-width:0.5;stroke-linecap:round;stroke-linejoin:round" d="m 18.5,13 c -0.86111,0 -1.509235,0.302204 -1.916016,0.708984 -0.40678,0.406781 -0.583984,0.87435 -0.583984,1.291016 v 2 h -1 v 5 h 7 v -5 h -1 v -2 c 0,-0.416666 -0.177204,-0.884235 -0.583984,-1.291016 -0.406781,-0.40678 -1.054906,-0.708984 -1.916016,-0.708984 z m 0,1 c 0.638888,0 0.990765,0.197797 1.208984,0.416016 0.218219,0.218219 0.291016,0.500651 0.291016,0.583984 v 2 h -3 v -2 c 0,-0.08333 0.0728,-0.365765 0.291016,-0.583984 0.218219,-0.218219 0.570096,-0.416016 1.208984,-0.416016 z" />
</svg>

<svg height="24" width="24" xmlns="http://www.w3.org/2000/svg"><path style="color:#000;fill:gray;-inkscape-stroke:none" d="m21 2.293-.854.853L2.293 21H14v-4a1 1 0 0 1 1-1v-1c0-.7.302-1.423.877-1.998.512-.512 1.248-.872 2.123-.973V6.707l2-2v7.568c.382.152.72.36 1 .61V2.293z"/><path style="fill:gray;fill-opacity:1;stroke:none;stroke-width:.5;stroke-linecap:round;stroke-linejoin:round" d="M18.5 13c-.861 0-1.51.302-1.916.709-.407.407-.584.874-.584 1.291v2h-1v5h7v-5h-1v-2c0-.417-.177-.884-.584-1.291-.407-.407-1.055-.709-1.916-.709zm0 1c.639 0 .99.198 1.209.416.218.218.291.5.291.584v2h-3v-2c0-.083.073-.366.291-.584.218-.218.57-.416 1.209-.416z"/></svg>
